packages/foundations/assets/icons/functional/images/communication/speech_bubble_question_mark_14.svg

<svg width="14" height="14" viewBox="0 0 14 14" fill="none" xmlns="http://www.w3.org/2000/svg">
<g clip-path="url(#clip0_185_509)">
<path fill-rule="evenodd" clip-rule="evenodd" d="M10.7882 1.39999C11.8451 1.39999 12.6 2.19251 12.6 3.14901V8.7513C12.6 9.7078 11.8177 10.5003 10.8432 10.5003H4.79026C4.58435 10.5003 4.40593 10.555 4.28239 10.6916L2.59419 12.3996C2.15498 12.8369 1.40002 12.509 1.40002 11.8941V3.14901C1.40002 2.19251 2.19616 1.39999 3.17065 1.39999H10.7882ZM11.2 2.79999H2.80002V10.22L3.30866 9.74084C3.67989 9.3849 4.16108 9.1274 4.66971 9.09999H11.2V2.79999ZM7.00006 7.34999C7.3483 7.34999 7.61252 7.61684 7.61252 7.9564C7.61252 8.29603 7.3483 8.57499 7.00006 8.57499C6.65175 8.57499 6.38752 8.29603 6.38752 7.9564C6.38752 7.61684 6.65175 7.34999 7.00006 7.34999ZM7.13606 3.49999C7.90699 3.49999 8.50446 3.91421 8.50446 4.6687C8.50446 5.24989 8.21447 5.56813 7.95348 5.79849C7.69248 6.02884 7.54319 6.13715 7.54581 6.2833V6.83575H6.4622V6.2833C6.4622 5.84661 6.67912 5.62775 6.90746 5.46145L7.20063 5.25635C7.33256 5.15486 7.42897 5.04408 7.42897 4.87504C7.42897 4.72167 7.34964 4.5836 7.04601 4.5836C6.78549 4.5836 6.48409 4.68525 6.25025 4.81483L5.88002 3.85394C6.11125 3.66698 6.64742 3.49999 7.13606 3.49999Z" fill="#1A1C1F"/>
</g>
<defs>
<clipPath id="clip0_185_509">
<rect width="14" height="14" fill="white"/>
</clipPath>
</defs>
</svg>

<svg xmlns="http://www.w3.org/2000/svg" width="14" height="14" fill="none"><g clip-path="url(#a)"><path fill="#1A1C1F" fill-rule="evenodd" d="M10.788 1.4c1.057 0 1.812.793 1.812 1.749v5.602c0 .957-.782 1.75-1.757 1.75H4.79c-.206 0-.384.054-.508.19L2.594 12.4c-.439.437-1.194.109-1.194-.506V3.15c0-.956.796-1.749 1.77-1.749zm.412 1.4H2.8v7.42l.509-.48c.37-.355.852-.613 1.36-.64H11.2zM7 7.35a.6.6 0 0 1 .613.606.61.61 0 0 1-.613.619.61.61 0 0 1-.612-.619A.6.6 0 0 1 7 7.35m.136-3.85c.771 0 1.368.414 1.368 1.169 0 .58-.29.9-.55 1.13-.262.23-.41.338-.408.484v.553H6.462v-.553c0-.436.217-.655.445-.822l.294-.205c.132-.101.228-.212.228-.381 0-.153-.08-.291-.383-.291-.26 0-.562.101-.796.23l-.37-.96c.231-.187.767-.354 1.256-.354" clip-rule="evenodd"/></g><defs><clipPath id="a"><path fill="#fff" d="M0 0h14v14H0z"/></clipPath></defs></svg>
